packages/foundations/assets/icons/functional/images/communication/speech_bubbles_12.svg

<svg width="12" height="12" viewBox="0 0 12 12" fill="none" xmlns="http://www.w3.org/2000/svg">
<g clip-path="url(#clip0_231_154)">
<path fill-rule="evenodd" clip-rule="evenodd" d="M1.20001 10.2V4.20001C1.20001 3.90295 1.44001 3.60001 1.80001 3.60001C2.16001 3.60001 2.40001 3.90001 2.40001 4.20001L2.40589 9.06733L3.12001 8.59903C3.30733 8.48197 3.49465 8.40001 3.78733 8.40001H7.80001C8.10001 8.40001 8.40001 8.64001 8.40001 9.00001C8.40001 9.36001 8.12047 9.60589 7.80001 9.60001L3.78733 9.59413L2.13661 10.7064C2.03125 10.7532 1.91413 10.8 1.80877 10.8C1.50439 10.8 1.20001 10.6215 1.20001 10.2ZM9.59413 1.20001C10.2498 1.20001 10.8 1.75027 10.8 2.40589V7.80295C10.8 8.15413 10.4956 8.40001 10.1913 8.40001C10.0859 8.40001 9.96877 8.37661 9.86341 8.30635L8.21269 7.19413H4.80589C4.15027 7.19413 3.60001 6.65563 3.60001 6.00001V2.40589C3.60001 1.75027 4.15027 1.20001 4.80589 1.20001H9.59413ZM9.59413 2.40589H4.80589V6.00001H8.21269C8.45857 6.00001 8.68099 6.07027 8.88001 6.21073L9.59413 6.67903V2.40589Z" fill="#1A1C1F"/>
</g>
<defs>
<clipPath id="clip0_231_154">
<rect width="12" height="12" fill="white"/>
</clipPath>
</defs>
</svg>

<svg xmlns="http://www.w3.org/2000/svg" width="12" height="12" fill="none"><g clip-path="url(#a)"><path fill="#1A1C1F" fill-rule="evenodd" d="M1.2 10.2v-6c0-.297.24-.6.6-.6s.6.3.6.6l.006 4.867.714-.468c.187-.117.375-.199.667-.199H7.8c.3 0 .6.24.6.6s-.28.606-.6.6l-4.013-.006-1.65 1.112a.9.9 0 0 1-.328.094c-.305 0-.609-.179-.609-.6m8.394-9c.656 0 1.206.55 1.206 1.206v5.397c0 .351-.304.597-.609.597a.6.6 0 0 1-.328-.094l-1.65-1.112H4.806A1.21 1.21 0 0 1 3.6 6V2.406c0-.656.55-1.206 1.206-1.206zm0 1.206H4.806V6h3.407q.369 0 .667.21l.714.469z" clip-rule="evenodd"/></g><defs><clipPath id="a"><path fill="#fff" d="M0 0h12v12H0z"/></clipPath></defs></svg>
